X:299
T:Merry-go-round. JaW.299, The
M:6/8
L:1/8
Q:3/8=120
B:James Winder Ms, Lancashire, 1835-41
O:
A:England, Wyresdale Lancashire
Z:vmp.Chris Partington, Aug 2004
K:D
dfd ege|cAc dfa|dfd ege|cBc d2:|
|:afa geg|fdf ecA|afa geg|fad d2:|d4|]

